X: 133
M: C
L: 1/8
K: G
|:\
d2e^c d4 :: B2cA G4 |\
d2e^c d4 | B2cA G4 |
d2e^c d4 | B2cA G4 |\
d2e^c d4 | B2AG g3d |\

